packages/core/src/svgs/oce.svg

<svg width="24" height="24" viewBox="0 0 24 24" fill="none" xmlns="http://www.w3.org/2000/svg">
<g clip-path="url(#clip0_31_15250)">
<path d="M0 0H24V24H0V0Z" fill="#F0F3FA"/>
<path d="M14.07 5.27132C13.4409 4.90711 12.7269 4.71533 12 4.71533C11.2731 4.71533 10.559 4.90711 9.92997 5.27132L7.21282 6.83989C6.5832 7.2034 6.0604 7.72631 5.69703 8.35601C5.33365 8.98571 5.14251 9.7 5.14282 10.427V10.5685C5.14365 9.90724 5.31831 9.25785 5.64928 8.68542C5.98025 8.11299 6.4559 7.63764 7.02854 7.30703L9.50139 5.8756C10.0734 5.54534 10.7223 5.37147 11.3828 5.37147C12.0433 5.37147 12.6922 5.54534 13.2643 5.8756L15.7414 7.30703C16.3069 7.64102 16.7741 8.11862 17.0954 8.69139C17.4168 9.26417 17.581 9.91175 17.5714 10.5685V13.4313C17.581 14.088 17.4168 14.7356 17.0954 15.3084C16.7741 15.8812 16.3069 16.3588 15.7414 16.6927L13.2643 18.1242C12.6922 18.4544 12.0433 18.6283 11.3828 18.6283C10.7223 18.6283 10.0734 18.4544 9.50139 18.1242L7.02425 16.6927C6.45241 16.3616 5.97762 15.886 5.64742 15.3136C5.31723 14.7412 5.14322 14.0921 5.14282 13.4313V13.5727C5.14251 14.2998 5.33365 15.0141 5.69703 15.6438C6.0604 16.2735 6.5832 16.7964 7.21282 17.1599L9.92997 18.7327C10.559 19.0969 11.2731 19.2887 12 19.2887C12.7269 19.2887 13.4409 19.0969 14.07 18.7327L16.7871 17.1599C17.4167 16.7964 17.9395 16.2735 18.3029 15.6438C18.6663 15.0141 18.8574 14.2998 18.8571 13.5727V10.427C18.8574 9.7 18.6663 8.98571 18.3029 8.35601C17.9395 7.72631 17.4167 7.2034 16.7871 6.83989L14.07 5.26703V5.27132ZM9.80997 6.51417C10.308 6.21841 10.8765 6.06231 11.4557 6.06231C12.0349 6.06231 12.6034 6.21841 13.1014 6.51417L15.2657 7.79989C16.0218 8.25076 16.5711 8.98007 16.7957 9.83132C16.5472 9.16683 16.0721 8.61136 15.4543 8.26275L13.4485 7.12275C12.9825 6.85908 12.4561 6.72051 11.9207 6.72051C11.3852 6.72051 10.8589 6.85908 10.3928 7.12275L8.38282 8.26275C7.92153 8.52202 7.53726 8.89901 7.26923 9.35527C7.0012 9.81153 6.85899 10.3307 6.85711 10.8599V13.1399C6.85711 14.2113 7.43997 15.2013 8.38282 15.737L10.3928 16.877C10.8589 17.1407 11.3852 17.2793 11.9207 17.2793C12.4561 17.2793 12.9825 17.1407 13.4485 16.877L15.4543 15.737C16.0714 15.3895 16.5463 14.8356 16.7957 14.1727C16.5701 15.0224 16.0209 15.75 15.2657 16.1999L13.1014 17.4856C12.6034 17.7814 12.0349 17.9375 11.4557 17.9375C10.8765 17.9375 10.308 17.7814 9.80997 17.4856L7.64568 16.1999C7.14236 15.8984 6.72605 15.4712 6.43754 14.9603C6.14904 14.4494 5.99825 13.8723 5.99997 13.2856V10.7142C5.99751 10.1267 6.14794 9.54875 6.43648 9.03704C6.72502 8.52533 7.14174 8.0975 7.64568 7.7956L9.80997 6.50989V6.51417ZM12.6728 8.25846C12.3089 8.05658 11.8997 7.95065 11.4835 7.95065C11.0674 7.95065 10.6581 8.05658 10.2943 8.25846L8.72568 9.13274C8.20999 9.41735 7.82222 9.88788 7.64139 10.4485C7.71511 10.0814 7.86543 9.73403 8.08255 9.42903C8.29967 9.12403 8.57869 8.86827 8.90139 8.67846L10.6285 7.66703C11.0274 7.43267 11.4816 7.30909 11.9443 7.30909C12.4069 7.30909 12.8611 7.43267 13.26 7.66703L14.9871 8.67846C15.3868 8.9162 15.717 9.25466 15.9449 9.66002C16.1728 10.0654 16.2903 10.5235 16.2857 10.9885V13.0113C16.2903 13.4763 16.1728 13.9344 15.9449 14.3397C15.717 14.7451 15.3868 15.0836 14.9871 15.3213L13.26 16.3327C12.8611 16.5671 12.4069 16.6907 11.9443 16.6907C11.4816 16.6907 11.0274 16.5671 10.6285 16.3327L8.90139 15.3213C8.57822 15.131 8.2989 14.8746 8.08176 14.5688C7.86462 14.2631 7.71455 13.9149 7.64139 13.547C7.82127 14.1092 8.20915 14.5814 8.72568 14.867L10.2943 15.7413C11.0271 16.1527 11.9357 16.1527 12.6728 15.7413L14.2371 14.867C14.5954 14.6713 14.8948 14.3833 15.1043 14.0329C15.3138 13.6825 15.4258 13.2824 15.4285 12.8742V11.1256C15.4285 10.3027 14.9743 9.53989 14.2371 9.13274L12.6728 8.25846Z" fill="url(#paint0_linear_31_15250)"/>
</g>
<defs>
<linearGradient id="paint0_linear_31_15250" x1="17.9357" y1="6.92132" x2="6.57854" y2="18.9299" gradientUnits="userSpaceOnUse">
<stop stop-color="#B06DA7"/>
<stop offset="0.51" stop-color="#A5A5D1"/>
<stop offset="0.73" stop-color="#92D1F4"/>
<stop offset="0.84" stop-color="#4E9DD7"/>
</linearGradient>
<clipPath id="clip0_31_15250">
<rect width="24" height="24" fill="white"/>
</clipPath>
</defs>
</svg>

<svg xmlns="http://www.w3.org/2000/svg" width="24" height="24" fill="none" viewBox="0 0 24 24"><g clip-path="url(#a)"><path fill="#F0F3FA" d="M0 0h24v24H0z"/><path fill="url(#b)" d="M14.07 5.271a4.13 4.13 0 0 0-4.14 0L7.213 6.84a4.14 4.14 0 0 0-2.07 3.587v.142a3.77 3.77 0 0 1 1.886-3.262L9.5 5.876a3.76 3.76 0 0 1 3.763 0l2.477 1.431a3.72 3.72 0 0 1 1.83 3.262v2.862a3.73 3.73 0 0 1-1.83 3.262l-2.477 1.431a3.76 3.76 0 0 1-3.763 0l-2.477-1.431a3.77 3.77 0 0 1-1.881-3.262v.142a4.14 4.14 0 0 0 2.07 3.587l2.717 1.573a4.13 4.13 0 0 0 4.14 0l2.717-1.573a4.14 4.14 0 0 0 2.07-3.587v-3.146a4.14 4.14 0 0 0-2.07-3.587L14.07 5.267zM9.81 6.514a3.22 3.22 0 0 1 3.291 0L15.266 7.8a3.37 3.37 0 0 1 1.53 2.031 3 3 0 0 0-1.342-1.568l-2.006-1.14a3.1 3.1 0 0 0-3.055 0l-2.01 1.14a2.99 2.99 0 0 0-1.526 2.597v2.28c0 1.071.583 2.061 1.526 2.597l2.01 1.14a3.1 3.1 0 0 0 3.055 0l2.006-1.14a3 3 0 0 0 1.342-1.564 3.37 3.37 0 0 1-1.53 2.027L13.1 17.486a3.22 3.22 0 0 1-3.291 0L7.646 16.2A3.39 3.39 0 0 1 6 13.286v-2.572a3.39 3.39 0 0 1 1.646-2.918L9.81 6.51zm2.863 1.744a2.45 2.45 0 0 0-2.379 0l-1.568.875a2.31 2.31 0 0 0-1.085 1.316 2.66 2.66 0 0 1 1.26-1.77l1.728-1.012a2.6 2.6 0 0 1 2.631 0l1.727 1.011a2.66 2.66 0 0 1 1.299 2.31v2.023a2.66 2.66 0 0 1-1.299 2.31l-1.727 1.012a2.6 2.6 0 0 1-2.631 0L8.9 15.32a2.66 2.66 0 0 1-1.26-1.774c.18.562.568 1.034 1.085 1.32l1.568.874a2.45 2.45 0 0 0 2.379 0l1.564-.874a2.29 2.29 0 0 0 1.191-1.993v-1.748c0-.823-.454-1.586-1.19-1.993z"/></g><defs><linearGradient id="b" x1="17.936" x2="6.579" y1="6.921" y2="18.93" gradientUnits="userSpaceOnUse"><stop stop-color="#B06DA7"/><stop offset=".51" stop-color="#A5A5D1"/><stop offset=".73" stop-color="#92D1F4"/><stop offset=".84" stop-color="#4E9DD7"/></linearGradient><clipPath id="a"><path fill="#fff" d="M0 0h24v24H0z"/></clipPath></defs></svg>
